X:681
T:Reel 681
M:4/4
K:Gmaj
L:1/8
 (3def |:g2fd edBA|GABG AGEF|GFGA BABd| (3efg af gfef|g2fd edBA|GBBG AGEF|GFGA BABd| (3efg af g2|ef| (3gfe dB efdB| (3cBA BA AGEA|Ggge d2ed|egfa g2 (3def |gb (3gfe dBAB|cABA AGEA|GBcd efge|dBAc BAAB|
